src/pos-icons/battery-medium.svg

<svg height="24" viewBox="0 0 24 24" width="24" xmlns="http://www.w3.org/2000/svg"><path d="m16 20h-8v-14h8m.67-2h-1.67v-2h-6v2h-1.67c-.73 0-1.33.6-1.33 1.33v15.34c0 .73.6 1.33 1.33 1.33h9.34c.74 0 1.33-.59 1.33-1.33v-15.34c0-.73-.6-1.33-1.33-1.33m-1.67 12h-6v3h6zm0-4.5h-6v3h6z"/></svg>

<?xml version="1.0" encoding="UTF-8"?><!DOCTYPE svg PUBLIC "-//W3C//DTD SVG 1.1//EN" "http://www.w3.org/Graphics/SVG/1.1/DTD/svg11.dtd"><svg xmlns="http://www.w3.org/2000/svg" xmlns:xlink="http://www.w3.org/1999/xlink" version="1.1" id="mdi-battery-medium" width="24" height="24" viewBox="0 0 24 24"><path d="M16 20H8V6H16M16.67 4H15V2H9V4H7.33C6.6 4 6 4.6 6 5.33V20.67C6 21.4 6.6 22 7.33 22H16.67C17.41 22 18 21.41 18 20.67V5.33C18 4.6 17.4 4 16.67 4M15 16H9V19H15V16M15 11.5H9V14.5H15V11.5Z" /></svg>
